assets/img/help/trouble-signing-in.svg

<svg width="69" height="82" viewBox="0 0 69 82" fill="none" xmlns="http://www.w3.org/2000/svg">
<ellipse cx="34.5001" cy="46.4807" rx="33.4994" ry="33.5449" fill="#EBF3FA"/>
<path fill-rule="evenodd" clip-rule="evenodd" d="M0 46.4808C0 27.403 15.4449 11.9352 34.5 11.9352C53.5551 11.9352 69 27.403 69 46.4808H66.9987C66.9987 28.5057 52.4473 13.9364 34.5 13.9364C16.5527 13.9364 2.00126 28.5057 2.00126 46.4808H0Z" fill="#A8B6C6"/>
<path fill-rule="evenodd" clip-rule="evenodd" d="M62.6698 46.4807H5.5686V62.4837C6.94962 64.9898 8.64586 67.2971 10.6037 69.3523H57.6698C57.9367 69.3523 58.1988 69.3313 58.4544 69.2911C60.0426 67.6155 61.4573 65.7735 62.6698 63.7938V46.4807Z" fill="white"/>
<path fill-rule="evenodd" clip-rule="evenodd" d="M10.5681 30.2324C7.25441 30.2324 4.56812 32.9187 4.56812 36.2324V60.5151C5.15908 61.7812 5.8278 63.0037 6.56812 64.1763V36.2324C6.56812 34.0233 8.35898 32.2324 10.5681 32.2324H58.4307C60.6398 32.2324 62.4307 34.0233 62.4307 36.2324V64.1783C63.171 63.0059 63.8397 61.7837 64.4307 60.5177V36.2324C64.4307 32.9187 61.7444 30.2324 58.4307 30.2324H10.5681ZM57.4029 70.3517C58.1055 69.6742 58.7781 68.9658 59.4187 68.2287C59.1027 68.309 58.7717 68.3517 58.4307 68.3517H10.5681C10.2277 68.3517 9.89719 68.3092 9.58165 68.2291C10.2221 68.9661 10.8947 69.6743 11.5971 70.3517H57.4029Z" fill="#112E51"/>
<path d="M34.1198 1.5C43.5804 1.5 51.2497 9.2043 51.2497 18.708L51.2489 31.233H43.2553L43.2558 18.7834C43.2558 13.7147 39.1655 9.60576 34.1198 9.60576C29.1597 9.60576 25.1228 13.5766 24.9873 18.5265L24.9838 18.7834L24.9835 31.233H16.989L16.9899 18.708C16.9899 9.2043 24.6592 1.5 34.1198 1.5Z" fill="white" stroke="#112E51" stroke-width="2"/>
<path fill-rule="evenodd" clip-rule="evenodd" d="M34.5 81.0263C15.4449 81.0263 0 65.5584 0 46.4807H2.00126C2.00126 64.4557 16.5527 79.025 34.5 79.025C52.4473 79.025 66.9987 64.4557 66.9987 46.4807H69C69 65.5584 53.5551 81.0263 34.5 81.0263Z" fill="#A8B6C6"/>
<ellipse cx="34.5001" cy="49.5303" rx="11.4202" ry="11.4358" fill="white"/>
<path fill-rule="evenodd" clip-rule="evenodd" d="M23.0798 49.5303C23.0798 43.2129 28.1913 38.0945 34.5001 38.0945C40.8088 38.0945 45.9203 43.2129 45.9203 49.5303C45.9203 55.8476 40.8088 60.966 34.5001 60.966C28.1913 60.966 23.0798 55.8476 23.0798 49.5303ZM40.0996 53.316C40.316 53.0993 40.316 52.7489 40.0996 52.5321L37.0788 49.5303L40.1042 46.533C40.3206 46.3162 40.3206 45.9658 40.1042 45.7491L38.2807 43.923C38.0642 43.7063 37.7142 43.7063 37.4978 43.923L34.5 46.948L31.5068 43.9184C31.2904 43.7017 30.9404 43.7017 30.724 43.9184L28.9004 45.7445C28.684 45.9612 28.684 46.3116 28.9004 46.5284L31.9212 49.5303L28.9004 52.5275C28.684 52.7443 28.684 53.0947 28.9004 53.3114L30.7194 55.1375C30.9358 55.3542 31.2858 55.3542 31.5022 55.1375L34.5 52.1125L37.4932 55.1375C37.7096 55.3542 38.0596 55.3542 38.2761 55.1375L40.0996 53.316Z" fill="#E21C3D"/>
</svg>

<svg width="69" height="82" fill="none" xmlns="http://www.w3.org/2000/svg"><ellipse cx="34.5" cy="46.481" rx="33.499" ry="33.545" fill="#EBF3FA"/><path fill-rule="evenodd" clip-rule="evenodd" d="M0 46.48c0-19.077 15.445-34.545 34.5-34.545S69 27.403 69 46.481h-2.001c0-17.975-14.552-32.545-32.499-32.545-17.947 0-32.499 14.57-32.499 32.545H0z" fill="#A8B6C6"/><path fill-rule="evenodd" clip-rule="evenodd" d="M62.67 46.48H5.569v16.004a33.175 33.175 0 005.035 6.868H57.67c.267 0 .529-.02.784-.06a33.197 33.197 0 004.216-5.498V46.48z" fill="#fff"/><path fill-rule="evenodd" clip-rule="evenodd" d="M10.568 30.232a6 6 0 00-6 6v24.283a33.014 33.014 0 002 3.661V36.232a4 4 0 014-4h47.863a4 4 0 014 4v27.946a33.007 33.007 0 002-3.66V36.232a6 6 0 00-6-6H10.568zm46.835 40.12a33.236 33.236 0 002.016-2.123c-.316.08-.647.123-.988.123H10.568c-.34 0-.67-.043-.986-.123.64.737 1.313 1.445 2.015 2.123h45.806z" fill="#112E51"/><path d="M34.12 1.5c9.46 0 17.13 7.704 17.13 17.208l-.001 12.525h-7.994v-12.45c0-5.068-4.09-9.177-9.135-9.177-4.96 0-8.997 3.97-9.133 8.92l-.003.257v12.45h-7.995V18.708C16.99 9.204 24.66 1.5 34.12 1.5z" fill="#fff" stroke="#112E51" stroke-width="2"/><path fill-rule="evenodd" clip-rule="evenodd" d="M34.5 81.026C15.445 81.026 0 65.558 0 46.481h2.001c0 17.975 14.552 32.544 32.499 32.544 17.947 0 32.499-14.57 32.499-32.544H69c0 19.077-15.445 34.545-34.5 34.545z" fill="#A8B6C6"/><ellipse cx="34.5" cy="49.53" rx="11.42" ry="11.436" fill="#fff"/><path fill-rule="evenodd" clip-rule="evenodd" d="M23.08 49.53c0-6.317 5.111-11.436 11.42-11.436s11.42 5.119 11.42 11.436c0 6.318-5.111 11.436-11.42 11.436S23.08 55.848 23.08 49.53zm17.02 3.786a.554.554 0 000-.784l-3.021-3.002 3.025-2.997a.554.554 0 000-.784l-1.823-1.826a.553.553 0 00-.783 0L34.5 46.948l-2.993-3.03a.553.553 0 00-.783 0L28.9 45.745a.554.554 0 000 .783l3.021 3.002-3.02 2.998a.554.554 0 000 .783l1.818 1.827a.553.553 0 00.783 0l2.998-3.026 2.993 3.026a.553.553 0 00.783 0l1.824-1.822z" fill="#E21C3D"/></svg>
